icon/pk/yep.svg

<svg viewBox="0 0 48 48" fill="none" xmlns="http://www.w3.org/2000/svg" height="1em" width="1em">
  <path d="M32 42C27.2639 44.7064 21 44.5 16 42C11 39.5 7 34 7 29.5C7 26.8769 11.3562 24.9696 13.1956 24.2812C13.6561 24.1089 13.9462 23.641 13.8732 23.1548L11.5864 7.90928C11.2777 5.85104 12.8717 4 14.953 4C16.6877 4 18.1449 5.3043 18.3365 7.02835L20 22L20.8301 6.22926C20.9253 4.41897 22.421 3 24.2338 3C26.2502 3 27.8259 4.74108 27.6252 6.74756L26.5866 17.1341C26.7087 15.9225 27.7286 15 28.9466 15C31.1852 15 33 16.8148 33 19.0534L33 21.5C33 19.567 34.567 18 36.5 18C38.433 18 40 19.567 40 21.5V32.1489C40 32.7149 39.9472 33.2807 39.7471 33.8102C39.1514 35.387 37.2872 38.9788 32 42Z" fill="#2F88FF" stroke="black" stroke-width="4" stroke-linecap="round" stroke-linejoin="round"/>
</svg>

<svg width="48" height="48" fill="none" xmlns="http://www.w3.org/2000/svg"><path d="M32 42c-4.736 2.706-11 2.5-16 0s-9-8-9-12.5c0-2.623 4.356-4.53 6.196-5.219.46-.172.75-.64.677-1.126L11.586 7.909a3.404 3.404 0 1 1 6.75-.88L20 22l.83-15.77a3.408 3.408 0 1 1 6.795.518l-1.038 10.386A2.372 2.372 0 0 1 28.947 15 4.053 4.053 0 0 1 33 19.053V21.5a3.5 3.5 0 1 1 7 0v10.649c0 .566-.053 1.132-.253 1.661-.596 1.577-2.46 5.169-7.747 8.19Z" fill="#2F88FF" stroke="#000" stroke-width="4" stroke-linecap="round" stroke-linejoin="round"/></svg>
